svgs/covpass.svg

<svg xmlns="http://www.w3.org/2000/svg" width="192" height="192" fill="none"><path stroke="#000" stroke-linecap="round" stroke-linejoin="round" stroke-width="8" d="M151.984 126.907v-2.988s7.369-4.722 0-9.946h-8.983m-.25 13.308v-3.362s-7.369-4.721 0-9.946m-8.323 14.432-1.331-2.675s4.494-7.51-4.431-8.905l-8.042 4.002m5.539 11.691-1.331-2.675s-8.701-.945-4.431-8.905m.59 16.93-2.722-1.502s-.475-8.739-8.653-4.903l-4.428 7.815m11.663 6.876-3.133-1.755s-7.74 4.084-8.653-4.903m10.593 12.95-4.419.053s-4.852-7.284-9.945.176l.159 8.981m12.937.021-2.988.053s-4.59 7.452-9.944.176M116 152a25.124 25.124 0 0 1 1-6m4-8a25.714 25.714 0 0 1 5-5"/><path stroke="#000" stroke-linecap="round" stroke-linejoin="round" stroke-width="8" d="M135 129c2.594-1.459 5.294-2.127 8-1.98"/><path stroke="#000" stroke-linecap="round" stroke-linejoin="round" stroke-width="12" d="M58 77.548 86.062 106 139 53"/><path stroke="#000" stroke-linecap="round" stroke-linejoin="round" stroke-width="8" d="M152.095 126.705s6.904-4.783 6.904-19.067V40.804s.12-1.577-1.892-2.125C153.875 37.8 95.405 20 95.405 20L35.098 38.486s-2.393.532-2.832 2.16c-.598 2.217 0 71.295 0 71.295s-.284 21.295 38.262 46.376L95.383 172l18.902-10.307"/></svg>

<svg width="192" height="192" fill="none" xmlns="http://www.w3.org/2000/svg"><path d="M151.984 126.907v-2.988s7.369-4.722 0-9.946h-8.983M142.751 127.281v-3.362s-7.369-4.721 0-9.946M134.428 128.405l-1.331-2.675s4.494-7.51-4.431-8.905l-8.042 4.002M126.163 132.518l-1.331-2.675s-8.701-.945-4.431-8.905M120.991 137.868l-2.722-1.502s-.475-8.739-8.653-4.903l-4.428 7.815M116.851 146.154l-3.133-1.755s-7.74 4.084-8.653-4.903M115.658 152.446l-4.419.053s-4.852-7.284-9.945.176l.159 8.981M114.39 161.677l-2.988.053s-4.59 7.452-9.944.176M116 152a25.124 25.124 0 0 1 1-6M121 138a25.714 25.714 0 0 1 5-5" stroke="#000" stroke-width="8" stroke-linecap="round" stroke-linejoin="round"/><path d="M135 129c2.594-1.459 5.294-2.127 8-1.98" stroke="#000" stroke-width="8" stroke-linecap="round" stroke-linejoin="round"/><path d="M58 77.548 86.062 106 139 53" stroke="#000" stroke-width="12" stroke-linecap="round" stroke-linejoin="round"/><path d="M152.095 126.705s6.904-4.783 6.904-19.067V40.804s.12-1.577-1.892-2.125C153.875 37.8 95.405 20 95.405 20L35.098 38.486s-2.393.532-2.832 2.16c-.598 2.217 0 71.295 0 71.295s-.284 21.295 38.262 46.376L95.383 172l18.902-10.307" stroke="#000" stroke-width="8" stroke-linecap="round" stroke-linejoin="round"/></svg>
